X:1
T:Title
%%score { 1 | ( 2 3 ) }
L:1/8
M:4/4
K:Eb
V:1 treble nm="Grand Piano"
V:2 bass 
V:3 bass 
V:1
 z4 z2[Q:1/4=100] [GB]>[EG] | [Ac]2 [GB]>[EG] [Gc]2 [GB]>[EG] | [Gc]2 [Gc]2 [Gc]2 [GB]>[EG] | %3
 [Gc]2 [GB]>[EG] [Gc]2 [GB]>[EG] | [Ad]2 [Ad]2 [Ad]2 B>B | [Fd]2 [F_d]2 [Fc]2 [F=B]2 | %6
 [FB]2 [Fc]2 [DAB]2 B>B | [Fd]2 [F_d]2 [Fc]2 [F=B]2 |[M:5/4] [FB]2 [Fc]2 [DAB]6 | %9
[M:4/4] [DFA]>[F,B,D] [B,DF]>[B,DA] [DAc]2 [F,B,D]2 | [DAc]2 [DAc]2 [DAc]4 | %11
 [B,EG]>[G,E] [B,EG]>[B,GB] [EGc]2 [G,E]2 | [EGc]2 [EGc]2 [EGc]>B G>B | %13
 [_Ge]2 [Ge]2 [Ge]>[=E_d] [_E=B]>[=Ed] | [Ge]4 [GB]>[EG] [FA]>[GB] |[M:3/4] [Fd]2 [Ac]2 [FA]2 | %16
[M:1/4] [B,DF]2 |[M:4/4] [B,EB]2 [DAB]2 [EGB]>E G>B | [_Ge]2 [Ge]2 [Ge]>[=E_d] [_E=B]>[=Ed] | %19
 [Ge]4 [GB]>[EG] [FA]>[GB] |[M:3/4] [Fd]2 [Ac]2 [FA]2 |[M:1/4] [DF]2 |[M:3/4] E6 |] %23
V:2
 z4 z2 [E,E]>[E,B,] | [E,E]2 [E,E]>[E,B,] [E,E]2 [E,E]>[E,B,] | [E,E]2 [E,E]2 [E,E]2 [E,E]>[E,B,] | %3
 [E,E]2 [E,E]>[E,B,] [E,E]2 [E,E]>[E,B,] | [F,B,]2 [F,B,]2 [F,B,]2[K:treble] [B,A]>[B,A] | %5
 [B,,A,]2 [=B,,A,]2 [C,A,]2 [_D,A,]2 | [D,A,]2 [B,,A,]2 F,2 B,>B, | %7
 [B,,A,]2 [=B,,A,]2 [C,A,]2 [_D,A,]2 |[M:5/4] [D,A,]2 [B,,A,]2 F,6 | %9
[M:4/4] B,,>B,, B,,>B,, B,,2 B,,2 | B,,2 B,,2 z z/ D,/ F,>B, | E,>E, E,>E, E,2 E,2 | %12
 E,2 E,2 E,>B, G,>B, | [=B,,=B,]2 [B,,B,]2 [B,,B,]>[B,,_G,] [B,,G,]>[B,,G,] | %14
 [B,,B,]4 [B,,B,]>[B,,B,] [B,,B,]>[B,,B,] |[M:3/4] [B,,B,]2 [B,,B,]2 [B,,B,]2 |[M:1/4] A,2 | %17
[M:4/4] G,2 F,2 E,>E, G,>B, | [=B,,=B,]2 [B,,B,]2 [B,,B,]>[B,,_G,] [B,,G,]>[B,,G,] | %19
 [B,,B,]4 [B,,B,]>[B,,B,] [B,,B,]>[B,,B,] |[M:3/4] [B,,B,]2 [B,,B,]2 [B,,B,]2 |[M:1/4] [B,,A,]2 | %22
[M:3/4] [E,G,]6 |] %23
V:3
 x8 | x8 | x8 | x8 | x6[K:treble] x2 | x8 | x8 | x8 |[M:5/4] x10 |[M:4/4] x8 | z4 B,,4 | x8 | x8 | %13
 x8 | x8 |[M:3/4] x6 |[M:1/4] x2 |[M:4/4] x8 | x8 | x8 |[M:3/4] x6 |[M:1/4] x2 |[M:3/4] x6 |] %23

